X:54
T:[German Tune #6]
T:John Malchair's Third Collection of Tunes
%%VWML:Malchair-3619-p54
F:https://www.vwml.org/record/Malchair/3619/p54
F:www.vwml.org/topics/historic-dance-and-tune-books/Malchair
Z:Steve Mansfield Feb 2020
M:3/4
L:1/8
K:G
d | [DBg]4 bg | d4 BD | cDcDBD | cDcD B2 | [DBg]4 bg | d4 Bd | cAFD B2 | G2z2 :|
|: [db]2 | c'dc'dc'd | c'dc'dc'd | c'dc'dc'd | c'dc'db2 | [DBg]4 bg | d4 Bd | cAFD B2 | G2z2 :|
W:
T:[German Tune #7]
T:John Malchair's Third Collection of Tunes
%%VWML:Malchair-3619-p54
F:https://www.vwml.org/record/Malchair/3619/p54
F:www.vwml.org/topics/historic-dance-and-tune-books/Malchair
Z:Steve Mansfield Feb 2020
M:3/4
L:1/4
K:C
G | [Ec][Ec][Ec] | [ce][ce][ce] | ggg | {e}d/c/d/e/d | [Ec][Ec][Ec] | [ce][ce][ce] | {^f}gg d/e/ | cz :|
|: G | ([db][db]) c' | ([db][db]) c' | ([db][db]) c' | [db]2G | [Ec][Ec][Ec] | [ce][ce][ce] | gg(d/e/) | cz :|
W:
T:[German Tune #8]
T:John Malchair's Third Collection of Tunes
%%VWML:Malchair-3619-p54
F:https://www.vwml.org/record/Malchair/3619/p54
F:www.vwml.org/topics/historic-dance-and-tune-books/Malchair
Z:Steve Mansfield Feb 2020
M:3/4
L:1/8
K:G
GB | d2 (d^c)(dc) | (d^cdcde) | d4BG | F2AF D2 | (GBd^c)dc | (GBd^c)de | d3=cBA | G2z :|
|: d2 | [Af]2af d2 | [DBg]2bg d2 | [DAf]2af d2 | [DBg]2bg d2 | GBd^cdc | GBd^cde | d3=cBA | G2z :|

